src/assets/contato/linkedin-white.svg

<svg width="26" height="26" viewBox="0 0 26 26" fill="none" xmlns="http://www.w3.org/2000/svg">
<g clip-path="url(#clip0_39_40)">
<path d="M13 2.16667C18.9735 2.16667 23.8333 7.0265 23.8333 13C23.8333 18.9735 18.9735 23.8333 13 23.8333C7.0265 23.8333 2.16667 18.9735 2.16667 13C2.16667 7.0265 7.0265 2.16667 13 2.16667ZM13 0C5.82075 0 0 5.82075 0 13C0 20.1793 5.82075 26 13 26C20.1793 26 26 20.1793 26 13C26 5.82075 20.1793 0 13 0ZM10.8333 8.66667C10.8333 9.27008 10.3491 9.75867 9.75 9.75867C9.15092 9.75867 8.66667 9.27117 8.66667 8.66667C8.66667 8.06325 9.15092 7.57467 9.75 7.57467C10.3491 7.57467 10.8333 8.06433 10.8333 8.66667ZM10.8333 10.8333H8.66667V17.3333H10.8333V10.8333ZM14.0833 10.8333H11.9167V17.3333H14.0833V14.2339C14.0833 12.3684 16.2522 12.1962 16.2522 14.2339V17.3333H18.4167V13.6944C18.4167 10.1368 15.028 10.2668 14.0833 12.0174V10.8333Z" fill="white"/>
</g>
<defs>
<clipPath id="clip0_39_40">
<rect width="26" height="26" fill="white"/>
</clipPath>
</defs>
</svg>

<svg xmlns="http://www.w3.org/2000/svg" width="26" height="26" fill="none"><g clip-path="url(#a)"><path fill="#fff" d="M13 2.167c5.974 0 10.833 4.86 10.833 10.833 0 5.974-4.86 10.833-10.833 10.833S2.167 18.973 2.167 13 7.027 2.167 13 2.167ZM13 0C5.82 0 0 5.82 0 13s5.82 13 13 13 13-5.82 13-13S20.18 0 13 0Zm-2.167 8.667c0 .603-.484 1.092-1.083 1.092-.6 0-1.083-.488-1.083-1.092 0-.604.484-1.092 1.083-1.092.6 0 1.083.49 1.083 1.092Zm0 2.166H8.667v6.5h2.166v-6.5Zm3.25 0h-2.166v6.5h2.166v-3.1c0-1.865 2.17-2.037 2.17 0v3.1h2.164v-3.639c0-3.557-3.389-3.427-4.334-1.677v-1.184Z"/></g><defs><clipPath id="a"><path fill="#fff" d="M0 0h26v26H0z"/></clipPath></defs></svg>
